src/img/offer/backpack.svg

<svg width="88" height="88" viewBox="0 0 88 88" fill="none" xmlns="http://www.w3.org/2000/svg">
<path opacity="0.4" d="M12.1875 56.0388C12.1875 56.0388 12.6789 62.0529 12.7931 63.9492C12.9453 66.4926 13.9281 69.3335 15.5683 71.3059C17.8832 74.1019 20.61 75.0881 24.2503 75.095C28.5308 75.1019 59.6567 75.1019 63.9371 75.095C67.5774 75.0881 70.3042 74.1019 72.6192 71.3059C74.2594 69.3335 75.2421 66.4926 75.3978 63.9492C75.5086 62.0529 76 56.0388 76 56.0388" stroke="white" stroke-width="5" stroke-linecap="round" stroke-linejoin="round"/>
<path d="M31.8837 20.9243V19.6405C31.8837 15.4188 35.3025 12 39.5242 12H48.4588C52.677 12 56.0993 15.4188 56.0993 19.6405L56.1027 20.9243" stroke="white" stroke-width="5" stroke-linecap="round" stroke-linejoin="round"/>
<path d="M43.9919 60.1947V55.717" stroke="white" stroke-width="5" stroke-linecap="round" stroke-linejoin="round"/>
<path fill-rule="evenodd" clip-rule="evenodd" d="M12 31.5112V43.5083C18.637 47.8856 26.5889 50.9515 35.3159 52.1661C36.3609 48.3562 39.797 45.5637 43.9737 45.5637C48.0846 45.5637 51.5899 48.3562 52.5658 52.2007C61.3274 50.9861 69.3104 47.9202 75.982 43.5083V31.5112C75.982 25.6494 71.2655 20.9294 65.4037 20.9294H22.6129C16.7511 20.9294 12 25.6494 12 31.5112Z" stroke="white" stroke-width="5" stroke-linecap="round" stroke-linejoin="round"/>
</svg>

<svg width="88" height="88" fill="none" xmlns="http://www.w3.org/2000/svg"><path opacity=".4" d="M12.188 56.039s.49 6.014.605 7.91c.152 2.544 1.135 5.385 2.775 7.357 2.315 2.796 5.042 3.782 8.682 3.789 4.28.007 35.407.007 39.687 0 3.64-.007 6.367-.993 8.682-3.79 1.64-1.972 2.623-4.812 2.779-7.356.11-1.896.602-7.91.602-7.91" stroke="#fff" stroke-width="5" stroke-linecap="round" stroke-linejoin="round"/><path d="M31.884 20.924V19.64a7.638 7.638 0 017.64-7.64h8.935a7.64 7.64 0 017.64 7.64l.004 1.284M43.992 60.195v-4.478" stroke="#fff" stroke-width="5" stroke-linecap="round" stroke-linejoin="round"/><path clip-rule="evenodd" d="M12 31.511v11.997c6.637 4.378 14.589 7.444 23.316 8.658 1.045-3.81 4.481-6.602 8.658-6.602 4.11 0 7.616 2.792 8.592 6.637 8.761-1.215 16.744-4.28 23.416-8.693V31.511A10.556 10.556 0 0065.404 20.93H22.613C16.75 20.93 12 25.65 12 31.511z" stroke="#fff" stroke-width="5" stroke-linecap="round" stroke-linejoin="round"/></svg>
